2/images/PSW-8.svg

<svg width="254" height="350" viewBox="0 0 254 350" fill="none" xmlns="http://www.w3.org/2000/svg">
<g id="PSW-8">
<path id="Stroke 1" d="M168.954 49.145H219.294C220.447 49.145 221.391 50.0889 221.391 51.2425V298.746C221.391 299.91 220.447 300.844 219.294 300.844H34.7147C33.5506 300.844 32.6172 299.91 32.6172 298.746V51.2425C32.6172 50.0889 33.5506 49.145 34.7147 49.145H85.0544" stroke="black" stroke-width="2" stroke-linecap="round" stroke-linejoin="round"/>
<path id="Stroke 3" d="M1.15039 300.848V43.9061C1.15039 29.4261 12.889 17.6875 27.369 17.6875H127" stroke="#B2B2B2" stroke-width="2" stroke-linecap="round" stroke-linejoin="round"/>
<path id="Stroke 5" d="M252.849 49.1499V306.092C252.849 320.573 241.112 332.311 226.631 332.311H127" stroke="#B2B2B2" stroke-width="2" stroke-linecap="round" stroke-linejoin="round"/>
<path id="Stroke 7" d="M168.955 59.6323H210.905V258.894L195.173 274.625L179.442 290.356H43.1055V59.6323H85.0552" stroke="#B2B2B2" stroke-width="2" stroke-linecap="round" stroke-linejoin="round"/>
<path id="Stroke 9" fill-rule="evenodd" clip-rule="evenodd" d="M154.267 70.1249H99.7321C97.4154 70.1249 95.5371 68.2477 95.5371 65.93V42.8576C95.5371 40.5409 97.4154 38.6626 99.7321 38.6626H154.267C156.585 38.6626 158.462 40.5409 158.462 42.8576V65.93C158.462 68.2477 156.585 70.1249 154.267 70.1249Z" stroke="black" stroke-width="2" stroke-linecap="round" stroke-linejoin="round"/>
<path id="Stroke 11" d="M179.436 290.361V258.899H210.898" stroke="#B2B2B2" stroke-width="2" stroke-linecap="round" stroke-linejoin="round"/>
<path id="Stroke 13" fill-rule="evenodd" clip-rule="evenodd" d="M168.948 138.293C168.948 115.124 150.167 96.3428 126.999 96.3428C103.831 96.3428 85.0488 115.124 85.0488 138.293C85.0488 161.46 103.831 180.242 126.999 180.242C150.167 180.242 168.948 161.46 168.948 138.293Z" stroke="#231F20" stroke-width="2" stroke-linecap="round" stroke-linejoin="round"/>
<path id="Stroke 15" d="M146.639 129.871L123.072 153.438L107.361 137.726" stroke="#231F20" stroke-width="2" stroke-linecap="round" stroke-linejoin="round"/>
<path id="Stroke 17" d="M85.0488 201.216H168.948" stroke="#B2B2B2" stroke-width="2" stroke-linecap="round" stroke-linejoin="round"/>
<path id="Stroke 19" d="M85.0488 222.189H168.948" stroke="#B2B2B2" stroke-width="2" stroke-linecap="round" stroke-linejoin="round"/>
<path id="Stroke 21" d="M85.0488 243.163H168.948" stroke="#B2B2B2" stroke-width="2" stroke-linecap="round" stroke-linejoin="round"/>
<path id="Stroke 23" d="M99.7324 1.95654L127 17.6877" stroke="#B2B2B2" stroke-width="2" stroke-linecap="round" stroke-linejoin="round"/>
<path id="Stroke 25" d="M127 332.311L154.267 348.042" stroke="#B2B2B2" stroke-width="2" stroke-linecap="round" stroke-linejoin="round"/>
</g>
</svg>

<svg width="254" height="350" fill="none" xmlns="http://www.w3.org/2000/svg"><g stroke-width="2" stroke-linecap="round" stroke-linejoin="round"><path d="M168.95 49.15h50.34c1.16 0 2.1.94 2.1 2.1v247.5a2.1 2.1 0 01-2.1 2.1H34.71a2.1 2.1 0 01-2.1-2.1V51.25c0-1.16.94-2.1 2.1-2.1h50.34" stroke="#000"/><path d="M1.15 300.85V43.9a26.22 26.22 0 0126.22-26.22H127M252.85 49.15v256.94a26.22 26.22 0 01-26.22 26.22H127" stroke="#B2B2B2"/><path d="M168.96 59.63h41.94V258.9l-15.73 15.74-15.73 15.73H43.11V59.63h41.95" stroke="#B2B2B2"/><path clip-rule="evenodd" d="M154.27 70.12H99.73a4.2 4.2 0 01-4.2-4.19V42.86a4.2 4.2 0 014.2-4.2h54.54a4.2 4.2 0 014.2 4.2v23.07a4.2 4.2 0 01-4.2 4.2z" stroke="#000"/><path d="M179.44 290.36V258.9h31.46" stroke="#B2B2B2"/><path clip-rule="evenodd" d="M168.95 138.3a41.95 41.95 0 10-83.9 0 41.95 41.95 0 0083.9 0z" stroke="#231F20"/><path d="M146.64 129.87l-23.57 23.57-15.7-15.71" stroke="#231F20"/><path d="M85.05 201.22h83.9M85.05 222.19h83.9M85.05 243.16h83.9M99.73 1.96L127 17.69M127 332.31l27.27 15.73" stroke="#B2B2B2"/></g></svg>
